icon-themes/breeze_svg/cmd/lc_entirecell.svg

<?xml version="1.0" encoding="UTF-8" standalone="no"?>
<!-- Created with Inkscape (http://www.inkscape.org/) -->

<svg
   xmlns:dc="http://purl.org/dc/elements/1.1/"
   xmlns:cc="http://creativecommons.org/ns#"
   xmlns:rdf="http://www.w3.org/1999/02/22-rdf-syntax-ns#"
   xmlns:svg="http://www.w3.org/2000/svg"
   xmlns="http://www.w3.org/2000/svg"
   xmlns:sodipodi="http://sodipodi.sourceforge.net/DTD/sodipodi-0.dtd"
   xmlns:inkscape="http://www.inkscape.org/namespaces/inkscape"
   width="24"
   height="24"
   id="svg3815"
   version="1.1"
   inkscape:version="0.91 r13725"
   sodipodi:docname="lc_entirecell.svg">
  <defs
     id="defs3817" />
  <sodipodi:namedview
     id="base"
     pagecolor="#ffffff"
     bordercolor="#666666"
     borderopacity="1.0"
     inkscape:pageopacity="0.0"
     inkscape:pageshadow="2"
     inkscape:zoom="26.436636"
     inkscape:cx="6.5656637"
     inkscape:cy="11.837594"
     inkscape:document-units="px"
     inkscape:current-layer="layer1"
     showgrid="true"
     fit-margin-top="0"
     fit-margin-left="0"
     fit-margin-right="0"
     fit-margin-bottom="0"
     inkscape:window-width="1920"
     inkscape:window-height="1013"
     inkscape:window-x="-4"
     inkscape:window-y="0"
     inkscape:window-maximized="1"
     inkscape:showpageshadow="false"
     borderlayer="false"
     inkscape:snap-bbox="true"
     inkscape:object-nodes="true">
    <sodipodi:guide
       position="3,21"
       orientation="18,0"
       id="guide3338" />
    <sodipodi:guide
       position="3,3"
       orientation="0,18"
       id="guide3340" />
    <sodipodi:guide
       position="21,3"
       orientation="-18,0"
       id="guide3342" />
    <sodipodi:guide
       position="21,21"
       orientation="0,-18"
       id="guide3344" />
    <sodipodi:guide
       position="4,20"
       orientation="16,0"
       id="guide3346" />
    <sodipodi:guide
       position="4,4"
       orientation="0,16"
       id="guide3348" />
    <sodipodi:guide
       position="20,4"
       orientation="-16,0"
       id="guide3350" />
    <sodipodi:guide
       position="17.999996,20.000021"
       orientation="0,-16"
       id="guide3352" />
    <inkscape:grid
       type="xygrid"
       id="grid3354"
       originx="0.99999557px"
       originy="1.0000215px" />
  </sodipodi:namedview>
  <metadata
     id="metadata3820">
    <rdf:RDF>
      <cc:Work
         rdf:about="">
        <dc:format>image/svg+xml</dc:format>
        <dc:type
           rdf:resource="http://purl.org/dc/dcmitype/StillImage" />
        <dc:title />
      </cc:Work>
    </rdf:RDF>
  </metadata>
  <g
     inkscape:label="Capa 1"
     inkscape:groupmode="layer"
     id="layer1"
     transform="translate(-460.71429,-524.79077)">
    <path
       style="opacity:1;fill:#4d4d4d;fill-opacity:1;stroke:none"
       d="m 4,4 0,1 0,15 1,0 8,0 0,-1 -3,0 0,-2 3,0 0,-1 -3,0 0,-1 0,-1 3,0 0,-1 -3,0 0,-2 4,0 0,1 1,0 0,-1 4,0 -4e-6,1.999979 -1,0 0,1 2.000004,0 L 20,5 20,4 Z M 5,5 9,5 9,6 9,7 8,7 5,7 Z m 5,0 4,0 0,1 0,1 -4,0 0,-1 z m 5,0 4,0 0,2 -3,0 -1,0 0,-1 z M 5,8 8,8 9,8 9,9 9,10 5,10 5,9 Z m 5,0 4,0 0,1 0,1 -4,0 0,-1 z m 5,0 4,0 0,1 0,1 -4,0 0,-1 z m -10,3 4,0 0,2 -4,0 z m 0,3 4,0 0,1 0,1 -1,0 -3,0 0,-1 z m 0,3 3,0 1,0 0,1.099609 L 9,19 5,19 Z"
       transform="translate(460.71429,524.79077)"
       id="rect4108-9"
       inkscape:connector-curvature="0"
       sodipodi:nodetypes="cccccccccccccccccccccccccccccccccccccccccccccccccccccccccccccccccccccccccccccccccccccccccccc" />
    <path
       style="fill:#1d99f3;fill-opacity:1;fill-rule:evenodd;stroke:none"
       d="m 474.71389,537.79075 4e-4,9 2.40045,-4 3.59955,0 -5.99952,-5 z"
       id="path4185"
       inkscape:connector-curvature="0"
       sodipodi:nodetypes="cccccc" />
    <path
       style="opacity:1;fill:#1d99f3;fill-opacity:1;stroke:none;stroke-width:1;stroke-linecap:butt;stroke-linejoin:round;stroke-miterlimit:4;stroke-dasharray:none"
       d="M 9 10 L 9 14 L 13 14 L 13 13 L 10 13 L 10 11 L 14 11 L 14 12 L 15 12 L 15 10 L 9 10 z "
       transform="translate(460.71429,524.79077)"
       id="rect4151" />
  </g>
</svg>

<svg xmlns="http://www.w3.org/2000/svg" viewBox="0 0 24 24">
 <path 
     style="fill:#4d4d4d" 
     d="M 4 4 L 4 5 L 4 20 L 5 20 L 13 20 L 13 19 L 10 19 L 10 17 L 13 17 L 13 16 L 10 16 L 10 15 L 10 14 L 13 14 L 13 13 L 10 13 L 10 11 L 14 11 L 14 12 L 15 12 L 15 11 L 19 11 L 19 13 L 18 13 L 18 14 L 20 14 L 20 5 L 20 4 L 4 4 z M 5 5 L 9 5 L 9 6 L 9 7 L 8 7 L 5 7 L 5 5 z M 10 5 L 14 5 L 14 6 L 14 7 L 10 7 L 10 6 L 10 5 z M 15 5 L 19 5 L 19 7 L 16 7 L 15 7 L 15 6 L 15 5 z M 5 8 L 8 8 L 9 8 L 9 9 L 9 10 L 5 10 L 5 9 L 5 8 z M 10 8 L 14 8 L 14 9 L 14 10 L 10 10 L 10 9 L 10 8 z M 15 8 L 19 8 L 19 9 L 19 10 L 15 10 L 15 9 L 15 8 z M 5 11 L 9 11 L 9 13 L 5 13 L 5 11 z M 5 14 L 9 14 L 9 15 L 9 16 L 8 16 L 5 16 L 5 15 L 5 14 z M 5 17 L 8 17 L 9 17 L 9 18.099609 L 9 19 L 5 19 L 5 17 z "
     />
 <path 
     style="fill:#1d99f3" 
     d="M 9 10 L 9 14 L 13 14 L 13 13 L 10 13 L 10 11 L 14 11 L 14 12 L 15 12 L 15 10 L 9 10 z M 14 13 L 14 22 L 16.400391 18 L 20 18 L 14 13 z "
     />
 </svg>
